src/components/content/Icon/distinctive/behaviour-change.svg

<svg width="100" height="100" viewBox="0 0 100 100" fill="none" xmlns="http://www.w3.org/2000/svg">
<path d="M86.0072 64.9364C86.0092 64.8333 85.9697 64.7312 85.8863 64.6573L71.254 51.6302C71.2017 51.5835 71.137 51.553 71.0677 51.5422C70.9983 51.5315 70.9274 51.5411 70.8634 51.5698C70.7994 51.5983 70.7449 51.6447 70.7066 51.7035C70.6684 51.7623 70.6479 51.8309 70.6478 51.901L70.6332 55.6468H66.5228C63.3613 55.6468 60.5686 54.6052 57.7353 52.3687C57.7301 52.3645 57.7249 52.3625 57.7197 52.3593C57.7082 52.351 57.6968 52.3437 57.6853 52.3375C57.6765 52.3325 57.6674 52.328 57.6582 52.3239C57.6457 52.3177 57.6322 52.3135 57.6197 52.3093C57.6103 52.3062 57.602 52.3041 57.5926 52.3021C57.579 52.2989 57.5645 52.2968 57.5499 52.2948C57.5415 52.2948 57.5322 52.2927 57.5238 52.2927H57.479C57.4707 52.2927 57.4634 52.2948 57.4551 52.2958C57.4395 52.2979 57.4249 52.301 57.4092 52.3052C57.402 52.3073 57.3947 52.3093 57.3884 52.3125C57.3661 52.3198 57.3447 52.33 57.3249 52.3427C57.3113 52.351 57.2978 52.3604 57.2853 52.3698L57.2665 52.3854C57.2603 52.3916 57.253 52.3958 57.2467 52.4021C57.1561 52.4958 57.0665 52.5916 56.9759 52.6885C55.0842 54.7073 53.0936 57.3083 51.0499 60.0198L50.4134 60.8646C49.4613 62.1291 48.477 63.4375 47.4405 64.751C47.4384 64.7541 47.4374 64.7573 47.4353 64.7593C47.427 64.7698 47.4207 64.7812 47.4145 64.7927C47.4092 64.8021 47.403 64.8114 47.3978 64.8218C47.3926 64.8333 47.3884 64.8448 47.3842 64.8562C47.3801 64.8677 47.3759 64.8781 47.3738 64.8896C47.3707 64.901 47.3697 64.9125 47.3676 64.9239C47.3655 64.9354 47.3634 64.9468 47.3634 64.9593V64.9937C47.3634 65.0052 47.3634 65.0166 47.3655 65.0281C47.3676 65.0396 47.3707 65.051 47.3728 65.0625C47.3759 65.0739 47.378 65.0854 47.3822 65.0958C47.3863 65.1062 47.3905 65.1166 47.3957 65.127C47.4009 65.1385 47.4061 65.15 47.4124 65.1604C47.4176 65.1698 47.4249 65.1781 47.4311 65.1875C47.4384 65.1979 47.4467 65.2093 47.4561 65.2187C47.4582 65.2208 47.4603 65.2239 47.4624 65.2271C53.3926 71.4802 59.4499 74.3927 66.5249 74.3927H70.5717L70.5467 78.4343C70.5467 78.5791 70.6311 78.7114 70.7634 78.7698C70.8282 78.7986 70.9 78.8079 70.97 78.7964C71.0399 78.7849 71.105 78.7532 71.1572 78.7052L85.8926 65.2125C85.9728 65.1385 86.0113 65.0364 86.0092 64.9354L86.0072 64.9364ZM70.779 64.6552C70.7738 64.6552 70.7686 64.6562 70.7624 64.6573C70.7561 64.6573 70.7509 64.6552 70.7447 64.6552H66.5217C61.5634 64.6552 57.2415 62.7687 52.9426 58.726C53.3332 58.2156 53.7207 57.7135 54.1051 57.2229C58.0426 60.7396 61.9978 62.3812 66.5217 62.3812H70.6832C70.6926 62.3833 70.7009 62.3875 70.7103 62.3896L82.603 64.6885L70.778 64.6562L70.779 64.6552ZM55.7717 55.1593C59.1988 58.0354 62.6249 59.3781 66.5238 59.3781H70.6832L82.5009 64.1666L70.8895 61.6802C70.8457 61.6614 70.7978 61.651 70.7467 61.651H66.5238C62.177 61.651 58.3676 60.0593 54.5603 56.6479C54.9676 56.1354 55.3717 55.6375 55.7717 55.1583V55.1593ZM71.3738 52.7125L83.1249 63.125L71.3603 55.7896L71.3624 55.6906L71.3738 52.7135V52.7125ZM57.5072 53.1864C57.5207 53.1718 57.5332 53.1583 57.5467 53.1448C60.3936 55.3177 63.3332 56.376 66.5238 56.376H70.9228L82.3967 63.4375L70.8801 58.6718C70.8238 58.6489 70.7655 58.6437 70.7092 58.6489H66.5249C62.8082 58.6489 59.5332 57.3614 56.2447 54.6031C56.6707 54.1052 57.0926 53.6312 57.5092 53.1864H57.5072ZM52.4999 59.3093C56.9228 63.451 61.3884 65.3843 66.5228 65.3843H70.7457C70.7519 65.3843 70.7572 65.3833 70.7634 65.3823C70.7697 65.3823 70.7749 65.3843 70.7811 65.3843H70.7832L82.604 65.3125L70.7332 67.6583H66.5238C60.9624 67.6583 56.1384 65.4812 51.3645 60.8146L51.6322 60.4583C51.9228 60.0729 52.2124 59.6895 52.5009 59.3093H52.4999ZM50.9207 61.4021C55.8176 66.1646 60.7853 68.3875 66.5228 68.3875H70.7457C70.7551 68.3875 70.7645 68.3854 70.7738 68.3843H70.7811C70.8061 68.3843 70.8301 68.3823 70.8551 68.3771L82.3957 65.9375L70.6738 70.6604H66.5228C60.3582 70.6604 55.0353 68.1896 49.7915 62.8958C50.1738 62.3927 50.5499 61.8937 50.9207 61.401V61.4021ZM56.0363 71.0802C53.379 69.6739 50.8155 67.6656 48.2072 64.952C48.5936 64.4593 48.9728 63.9687 49.3457 63.4812C54.7113 68.8729 60.1801 71.3896 66.5228 71.3896H70.7457C70.7926 71.3896 70.8405 71.3802 70.8842 71.3625L82.4999 66.5625L70.8072 73.6646H66.5228C62.752 73.6646 59.3217 72.8187 56.0363 71.0802ZM71.2999 74.2177L82.5863 67.251L71.279 77.6052L71.2999 74.2177ZM15.4603 42.3896H22.5436C26.2395 42.3896 29.579 44.0177 33.054 47.5135C33.0582 47.5177 33.0624 47.5198 33.0655 47.5229C33.0707 47.5281 33.0759 47.5343 33.0822 47.5396C33.0884 47.5448 33.0957 47.5479 33.102 47.5531L33.1207 47.5656C33.1342 47.5739 33.1488 47.5812 33.1634 47.5885C33.1697 47.5916 33.1759 47.5948 33.1822 47.5968C33.1988 47.6031 33.2155 47.6083 33.2322 47.6114C33.2374 47.6125 33.2415 47.6146 33.2467 47.6146C33.2686 47.6187 33.2905 47.6208 33.3134 47.6208H33.3165C33.3405 47.6208 33.3645 47.6177 33.3884 47.6135C33.3957 47.6125 33.403 47.6093 33.4103 47.6073C33.427 47.6031 33.4436 47.5979 33.4603 47.5906C33.4686 47.5864 33.4759 47.5823 33.4842 47.5781C33.4988 47.5708 33.5124 47.5625 33.5259 47.5521C33.5342 47.5458 33.5415 47.5396 33.5488 47.5333C33.5561 47.5271 33.5634 47.5229 33.5707 47.5156C33.5759 47.5104 33.5801 47.5031 33.5853 47.4979C33.5884 47.4937 33.5926 47.4916 33.5957 47.4875C34.127 46.8333 34.6634 46.1489 35.2072 45.4396C35.2082 45.4375 35.2103 45.4364 35.2113 45.4343C35.7197 44.7718 36.2363 44.0875 36.7645 43.3843L36.7665 43.3812C36.9061 43.1958 37.0457 43.0093 37.1863 42.8218C37.4676 42.4479 37.7499 42.0718 38.0332 41.6948C38.1238 41.5739 38.2165 41.4531 38.3072 41.3312C38.3092 41.3291 38.3113 41.326 38.3124 41.3239C38.8197 40.6521 39.3332 39.9739 39.8572 39.2916C39.8603 39.2885 39.8624 39.2854 39.8655 39.2812C40.8353 38.0198 41.8395 36.7479 42.9061 35.4864L43.0384 35.3302L43.0395 35.3281C43.054 35.3114 43.0655 35.2937 43.0759 35.275C43.077 35.2729 43.079 35.2708 43.0801 35.2677C43.0905 35.2489 43.0978 35.2302 43.1051 35.2104C43.1051 35.2073 43.1072 35.2052 43.1082 35.2021C43.1145 35.1823 43.1176 35.1635 43.1207 35.1437C43.1207 35.1406 43.1217 35.1375 43.1228 35.1333C43.1249 35.1135 43.1249 35.0948 43.1228 35.075V35.0625C43.1217 35.0448 43.1176 35.0271 43.1134 35.0093C43.1124 35.0041 43.1113 34.9989 43.1103 34.9927C43.1061 34.9781 43.0999 34.9635 43.0936 34.9489C43.0905 34.9416 43.0874 34.9333 43.0842 34.926C43.078 34.9146 43.0707 34.9031 43.0634 34.8927C43.0572 34.8833 43.0509 34.8739 43.0436 34.8646C43.0415 34.8625 43.0405 34.8604 43.0395 34.8583C38.5905 29.6364 32.2405 23.6427 22.5436 23.6427H15.4603C15.2592 23.6427 15.0957 23.8062 15.0957 24.0073V42.025C15.0957 42.226 15.2592 42.3896 15.4603 42.3896ZM39.5488 38.4968C37.054 35.7302 34.7436 33.7646 32.3061 32.3343C29.2249 30.5271 26.0311 29.6489 22.5436 29.6489H15.8249V27.375H22.5436C31.0072 27.375 36.6697 32.5021 40.6728 37.0635C40.2915 37.5416 39.9176 38.0198 39.5499 38.4958L39.5488 38.4968ZM37.9884 40.5416C35.729 38.0958 33.553 36.2885 31.3488 35.026C28.5572 33.4281 25.677 32.651 22.5426 32.651H15.8238V30.3771H22.5426C30.2322 30.3771 35.4207 34.9791 39.0967 39.0823C38.7228 39.5708 38.353 40.0573 37.9884 40.5406V40.5416ZM34.8759 44.6698C30.8582 40.5708 26.9301 38.6573 22.5426 38.6573H15.8238V36.3833H22.5426C27.3947 36.3833 31.553 38.4875 35.9915 43.1948C35.6145 43.6968 35.2426 44.1885 34.8759 44.6687V44.6698ZM15.8249 41.6604V39.3864H22.5436C26.8061 39.3864 30.4822 41.2 34.428 45.2541C34.0415 45.7552 33.6603 46.2416 33.2811 46.7125C29.7634 43.2677 26.3426 41.6593 22.5436 41.6593H15.8249V41.6604ZM36.6009 42.3843C36.5457 42.4583 36.4905 42.5312 36.4353 42.6041C34.3853 40.4437 32.4103 38.8458 30.4082 37.7302C27.904 36.3343 25.3311 35.6552 22.5415 35.6552H15.8228V33.3812H22.5415C27.9822 33.3812 32.6176 35.776 37.5405 41.1343C37.5103 41.175 37.4801 41.2146 37.4499 41.2552C37.1655 41.6323 36.8822 42.0093 36.6009 42.3854V42.3843ZM22.5426 24.3718C27.4395 24.3718 34.0988 25.5989 42.2822 35.0958C41.8915 35.5583 41.5092 36.0229 41.1342 36.4864C37.0353 31.8333 31.2374 26.6458 22.5426 26.6458H15.8238V24.3718H22.5426Z" fill="#0B301A"/>
<path d="M48.5999 58.2073L48.6165 58.1854C54.1374 50.8593 58.904 44.5333 66.5228 44.5333H70.5467L70.5613 48.2781C70.5613 48.4218 70.6468 48.551 70.777 48.6093C70.8249 48.6302 70.8749 48.6406 70.9259 48.6406C71.0134 48.6406 71.0999 48.6093 71.1686 48.5479L85.8009 35.5208L85.8072 35.5146C85.8101 35.5118 85.8132 35.5094 85.8165 35.5073C85.8238 35.5 85.829 35.4927 85.8353 35.4854C85.8426 35.4771 85.8499 35.4698 85.8551 35.4604C85.8561 35.4583 85.8582 35.4562 85.8603 35.4541V35.4531C85.8655 35.4458 85.8686 35.4375 85.8738 35.4291C85.879 35.4198 85.8853 35.4093 85.8905 35.3989C85.8915 35.3968 85.8936 35.3937 85.8947 35.3916C85.8978 35.3833 85.8999 35.3739 85.903 35.3645C85.9061 35.3541 85.9103 35.3437 85.9134 35.3323C85.9134 35.3302 85.9155 35.3281 85.9155 35.325V35.3239C85.9176 35.3145 85.9176 35.3052 85.9186 35.2968C85.9197 35.2854 85.9217 35.275 85.9228 35.2635V35.2281C85.9228 35.2229 85.9228 35.2166 85.9217 35.2114C85.9217 35.2031 85.9207 35.1958 85.9197 35.1875C85.9197 35.1823 85.9197 35.1771 85.9186 35.1708C85.9186 35.1687 85.9176 35.1666 85.9165 35.1645C85.9155 35.1583 85.9134 35.1531 85.9124 35.1479C85.9103 35.1406 85.9092 35.1343 85.9072 35.1271C85.9051 35.1187 85.902 35.1104 85.8988 35.1031C85.8968 35.0968 85.8936 35.0906 85.8915 35.0843C85.8895 35.0802 85.8884 35.075 85.8853 35.0708C85.8801 35.0614 85.8749 35.052 85.8686 35.0427L85.8593 35.0271C85.8574 35.0241 85.8553 35.0213 85.853 35.0187C85.8499 35.0145 85.8467 35.0114 85.8436 35.0073C85.8363 34.9979 85.828 34.9875 85.8197 34.9791C85.8165 34.976 85.8134 34.9739 85.8103 34.9708C85.8082 34.9687 85.8072 34.9666 85.8051 34.9646L71.0697 21.4718C71.0176 21.4241 70.9527 21.3925 70.8829 21.381C70.8132 21.3696 70.7416 21.3787 70.677 21.4073C70.6123 21.4357 70.5572 21.4824 70.5186 21.5416C70.4799 21.6008 70.4593 21.6699 70.4592 21.7406L70.4572 25.7854H66.5238C53.853 25.7854 46.7426 35.2083 40.4665 43.525C40.1832 43.901 39.902 44.275 39.6228 44.6479C37.004 48.1364 34.5311 51.4312 31.7957 53.8562C28.7686 56.5396 25.829 57.7885 22.5436 57.7885H15.4603C15.2592 57.7885 15.0957 57.952 15.0957 58.1531V76.1708C15.0957 76.3718 15.2592 76.5354 15.4603 76.5354H22.5436C28.0186 76.5354 32.9436 74.6583 37.5988 70.7979C41.6488 67.4395 44.8665 63.1646 47.979 59.0312C48.1874 58.7552 48.3947 58.4802 48.6009 58.2062L48.5999 58.2073ZM71.2749 44.3604L83.1249 37.1875L71.2863 47.4677L71.2738 44.3604H71.2749ZM70.754 40.8021H66.5228C57.7592 40.8021 52.4217 47.8823 46.7717 55.3791L46.7592 55.3958C46.5447 55.6802 46.329 55.9666 46.1124 56.2541C43.1186 60.2323 40.0238 64.3458 36.2457 67.5052C31.9811 71.0718 27.4988 72.8052 22.5426 72.8052H15.8238V70.5312H22.5426C27.3363 70.5312 31.6822 68.8302 35.828 65.3291C39.4613 62.2614 42.4842 58.2427 45.4072 54.3562C45.6322 54.0562 45.8572 53.7573 46.0822 53.4604L46.0915 53.4479C51.8759 45.775 57.3405 38.527 66.5228 38.527H70.7457C70.7645 38.527 70.7811 38.5239 70.7988 38.5218C70.8061 38.5218 70.8124 38.5239 70.8197 38.5239C70.8426 38.5239 70.8665 38.5218 70.8905 38.5166L83.0207 35.9375L70.754 40.8021ZM70.6978 29.5187L83.0207 34.4791L70.8947 31.801C70.8582 31.7937 70.8228 31.7927 70.7874 31.7958C70.7736 31.7935 70.7597 31.7921 70.7457 31.7916H66.5228C61.5415 31.7916 57.0613 33.5125 52.8238 37.0531C49.0978 40.1666 45.9926 44.2843 42.9832 48.2729C42.7342 48.6031 42.4853 48.9343 42.2374 49.2645C39.5322 52.8645 36.7342 56.5875 33.5801 59.3093C30.0332 62.3698 26.527 63.7948 22.5436 63.7948H15.8249V61.5208H22.5436C30.903 61.5208 36.0592 54.6562 41.5176 47.3885C41.7801 47.0385 42.0436 46.6885 42.3103 46.3333C45.3738 42.2729 48.5415 38.0739 52.4072 34.8739C56.7613 31.2698 61.379 29.5166 66.5238 29.5166H70.6988L70.6978 29.5187ZM70.7592 37.8C70.7592 37.8 70.7499 37.7989 70.7457 37.7989H66.5228C62.2249 37.7989 58.3207 39.3489 54.5874 42.5364C51.2717 45.3677 48.4728 49.0802 45.5103 53.0093L45.5009 53.0218C45.2759 53.3198 45.052 53.6187 44.8259 53.9187C41.927 57.7729 38.929 61.7573 35.3582 64.7729C31.3488 68.1573 27.1572 69.8031 22.5436 69.8031H15.8249V67.5291H22.5436C32.4624 67.5291 38.3874 59.6489 44.1176 52.0281C44.354 51.7146 44.5895 51.401 44.8249 51.0885L44.8322 51.0791C47.7259 47.2416 50.7186 43.2729 54.177 40.3541C58.0249 37.1052 62.0634 35.5271 66.5238 35.5271H70.7467C70.7749 35.5271 70.8009 35.5229 70.827 35.5177L83.1259 35.4198L70.7603 37.8031L70.7592 37.8ZM70.7457 32.5218C70.753 32.5218 70.7593 32.5198 70.7665 32.5198L83.1249 34.8958L70.8228 34.7854H70.8207C70.7926 34.7854 70.7665 34.7895 70.7405 34.7948H66.5238C56.1968 34.7948 50.1238 42.8489 44.2499 50.6375L44.2426 50.6468C44.0072 50.9593 43.7707 51.2739 43.5342 51.5875C37.9124 59.0656 32.0978 66.7979 22.5436 66.7979H15.8249V64.5239H22.5436C26.654 64.5239 30.4207 62.9989 34.0561 59.8614C37.2697 57.0885 40.0915 53.3333 42.8207 49.7021C43.0686 49.3718 43.3176 49.0416 43.5707 48.7052C49.5728 40.7479 55.778 32.5198 66.5228 32.5198H70.7457V32.5218ZM71.1863 22.5698L83.229 33.6458L71.1853 25.9791L71.1874 22.5708L71.1863 22.5698ZM22.5426 58.5187C26.0165 58.5187 29.1103 57.2104 32.279 54.4031C35.0697 51.9302 37.5645 48.6062 40.2051 45.0875C40.4842 44.7156 40.7655 44.3406 41.0499 43.9635C47.2207 35.7854 54.2155 26.5166 66.5228 26.5166H70.6655L83.229 34.1677L70.9593 28.8385C70.9332 28.8281 70.9061 28.8208 70.8801 28.8166C70.8384 28.8 70.7936 28.7906 70.7467 28.7906H66.5238C61.202 28.7906 56.4332 30.5979 51.9426 34.3156C48.0113 37.5698 44.8176 41.8031 41.7259 45.9021C41.4613 46.2531 41.1978 46.6041 40.9353 46.9541C35.5895 54.0718 30.5405 60.7948 22.5447 60.7948H15.8259V58.5208H22.5447L22.5426 58.5187ZM22.5426 75.8073H15.8238V73.5333H22.5426C34.0207 73.5333 40.754 64.5854 46.6947 56.6916C46.9113 56.4041 47.1259 56.1187 47.3405 55.8333L47.353 55.8166C50.202 52.0364 52.8936 48.4656 55.9457 45.827C59.3353 42.8958 62.6967 41.5302 66.5217 41.5302H70.7447C70.7509 41.5302 70.7572 41.5281 70.7634 41.5281C70.8278 41.538 70.8936 41.5304 70.954 41.5062L83.227 36.4583L70.7811 43.8052H70.7551C70.7551 43.8052 70.7467 43.8041 70.7426 43.8041H66.5197C58.5374 43.8041 53.6686 50.2656 48.0311 57.7468L48.0145 57.7687C47.8082 58.0416 47.6009 58.3177 47.3926 58.5937C41.3186 66.6625 34.4342 75.8073 22.5395 75.8073H22.5426Z" fill="#0B301A"/>
</svg>

<svg xmlns="http://www.w3.org/2000/svg" width="100" height="100" fill="none" viewBox="0 0 100 100"><path fill="#0b301a" d="M86.007 64.936a.36.36 0 0 0-.12-.279L71.253 51.63a.364.364 0 0 0-.606.271l-.015 3.746h-4.11c-3.162 0-5.954-1.042-8.788-3.278q-.008-.006-.015-.01a.3.3 0 0 0-.062-.035q-.019-.008-.038-.015l-.027-.007-.043-.007-.026-.002h-.045l-.024.003-.046.01q-.01.001-.02.007a.3.3 0 0 0-.064.03l-.04.027-.018.015q-.01.008-.02.017l-.271.286c-1.892 2.02-3.882 4.62-5.926 7.332l-.637.845c-.952 1.264-1.936 2.572-2.972 3.886l-.006.008-.02.034q-.01.014-.017.029l-.014.034q-.006.017-.01.034-.004.016-.006.034-.005.017-.005.035v.035q0 .017.002.034l.008.034q.004.018.01.034.005.015.013.031.007.017.016.033l.02.028q.01.016.024.03l.006.01c5.93 6.252 11.988 9.165 19.063 9.165h4.047l-.025 4.041a.366.366 0 0 0 .423.362.36.36 0 0 0 .187-.09l14.736-13.493a.37.37 0 0 0 .116-.278zm-15.228-.28-.017.001-.017-.002h-4.223c-4.959 0-9.28-1.886-13.58-5.929q.587-.766 1.163-1.503c3.938 3.517 7.893 5.158 12.417 5.158h4.161q.014.005.027.009l11.893 2.299zm-15.007-9.497c3.427 2.876 6.853 4.22 10.752 4.22h4.16L82.5 64.166 70.889 61.68a.4.4 0 0 0-.142-.029h-4.223c-4.347 0-8.156-1.592-11.964-5.003q.612-.77 1.212-1.49zm15.602-2.447 11.75 10.413L71.36 55.79l.002-.1.012-2.976zm-13.867.474.04-.041c2.847 2.173 5.786 3.231 8.977 3.231h4.399l11.474 7.062-11.517-4.766a.36.36 0 0 0-.17-.023h-4.185c-3.717 0-6.992-1.288-10.28-4.046q.64-.748 1.264-1.417zM52.5 59.31c4.423 4.142 8.888 6.075 14.023 6.075h4.223q.008 0 .017-.002l.018.002h.002l11.821-.072-11.87 2.346h-4.21c-5.562 0-10.386-2.177-15.16-6.843l.268-.357zm-1.58 2.093c4.898 4.763 9.865 6.986 15.603 6.986h4.223q.015-.001.028-.004h.007a.4.4 0 0 0 .074-.007l11.54-2.44-11.721 4.723h-4.151c-6.165 0-11.488-2.47-16.731-7.764q.573-.755 1.129-1.495zm5.116 9.678c-2.657-1.406-5.22-3.414-7.829-6.128q.58-.74 1.139-1.47c5.365 5.39 10.834 7.908 17.177 7.908h4.223q.072 0 .138-.028l11.616-4.8-11.693 7.103h-4.284c-3.771 0-7.201-.846-10.487-2.585M71.3 74.218l11.286-6.967L71.28 77.605zM15.46 42.39h7.084c3.695 0 7.035 1.628 10.51 5.124l.011.009.017.017.02.013.019.013.042.023.02.008a.3.3 0 0 0 .05.014q.006.004.014.004a.4.4 0 0 0 .066.006h.003a.4.4 0 0 0 .072-.008q.012-.001.022-.006a.3.3 0 0 0 .05-.016l.024-.013a.3.3 0 0 0 .065-.045l.022-.017.014-.018q.006-.005.01-.01a93 93 0 0 0 1.612-2.048l.004-.006q.762-.993 1.553-2.05l.002-.003q.21-.278.42-.56.423-.56.847-1.126.137-.181.274-.364l.005-.007q.76-1.009 1.545-2.032l.008-.01a104 104 0 0 1 3.041-3.796l.132-.156.002-.002a.3.3 0 0 0 .036-.053l.004-.007a.4.4 0 0 0 .025-.058q0-.004.003-.008a.4.4 0 0 0 .013-.058q0-.004.002-.01a.3.3 0 0 0 0-.059v-.013a.3.3 0 0 0-.01-.053l-.003-.016-.016-.044-.01-.023a.4.4 0 0 0-.04-.061l-.005-.007C38.59 29.636 32.24 23.643 22.544 23.643H15.46a.365.365 0 0 0-.364.364v18.018c0 .201.163.365.364.365m24.089-3.893c-2.495-2.767-4.805-4.732-7.243-6.163-3.081-1.807-6.275-2.685-9.762-2.685h-6.72v-2.274h6.72c8.463 0 14.126 5.127 18.129 9.688q-.572.719-1.123 1.433zm-1.56 2.045c-2.26-2.446-4.436-4.254-6.64-5.516-2.792-1.598-5.672-2.375-8.806-2.375h-6.72v-2.274h6.72c7.69 0 12.878 4.602 16.554 8.705q-.561.733-1.109 1.459m-3.113 4.128c-4.018-4.1-7.946-6.013-12.333-6.013h-6.72v-2.274h6.72c4.852 0 9.01 2.104 13.449 6.812q-.566.753-1.116 1.474m-19.051-3.01v-2.274h6.719c4.262 0 7.938 1.814 11.884 5.868q-.579.752-1.147 1.459c-3.518-3.445-6.938-5.054-10.737-5.054zm20.776.724-.166.22c-2.05-2.16-4.025-3.758-6.027-4.874-2.504-1.396-5.077-2.075-7.867-2.075h-6.718v-2.274h6.718c5.441 0 10.077 2.395 15 7.753l-.091.121q-.427.566-.85 1.13M22.543 24.372c4.897 0 11.556 1.227 19.74 10.724q-.587.694-1.149 1.39c-4.099-4.653-9.897-9.84-18.591-9.84h-6.72v-2.274z"/><path fill="#0b301a" d="m48.6 58.207.017-.022c5.52-7.326 10.287-13.652 17.906-13.652h4.024l.014 3.745a.364.364 0 0 0 .608.27L85.8 35.52l.006-.006.01-.008.018-.022q.012-.011.02-.025l.005-.006.014-.025.017-.03.004-.007.008-.028.01-.032.002-.007v-.001q.003-.015.004-.027.001-.017.004-.033v-.036l-.001-.017-.002-.023-.001-.017-.002-.007-.005-.016-.005-.02-.008-.025-.008-.019q-.002-.007-.006-.013l-.016-.028-.01-.016-.006-.008-.01-.012-.023-.028-.01-.008-.005-.006L71.07 21.472a.364.364 0 0 0-.61.269l-.003 4.044h-3.933c-12.671 0-19.781 9.423-26.057 17.74q-.426.564-.844 1.123c-2.619 3.488-5.092 6.783-7.827 9.208-3.027 2.684-5.967 3.932-9.252 3.932H15.46a.365.365 0 0 0-.364.365v18.018c0 .2.163.364.364.364h7.084c5.475 0 10.4-1.877 15.055-5.737 4.05-3.359 7.268-7.633 10.38-11.767q.313-.413.622-.825zM71.275 44.36l11.85-7.172-11.839 10.28-.012-3.108m-.521-3.558h-4.231c-8.764 0-14.101 7.08-19.751 14.577l-.013.017-.647.858c-2.993 3.978-6.088 8.092-9.866 11.251-4.265 3.567-8.747 5.3-13.703 5.3h-6.72v-2.274h6.72c4.793 0 9.14-1.7 13.285-5.202 3.633-3.068 6.656-7.086 9.58-10.973q.337-.45.674-.896l.01-.012c5.784-7.673 11.249-14.921 20.43-14.921h4.224q.027-.001.053-.005l.02.002a.3.3 0 0 0 .072-.007l12.13-2.58zm-.056-11.283 12.323 4.96-12.126-2.678a.4.4 0 0 0-.108-.005l-.041-.004h-4.223c-4.981 0-9.462 1.72-13.7 5.261-3.725 3.114-6.83 7.231-9.84 11.22l-.746.991c-2.705 3.6-5.503 7.323-8.657 10.045-3.547 3.06-7.053 4.486-11.036 4.486h-6.72V61.52h6.72c8.359 0 13.515-6.865 18.974-14.132l.792-1.056c3.064-4.06 6.231-8.26 10.097-11.46 4.354-3.603 8.972-5.356 14.117-5.356h4.175zm.061 8.281-.013-.001h-4.223c-4.298 0-8.202 1.55-11.936 4.737-3.315 2.832-6.114 6.544-9.077 10.473l-.01.013-.674.897c-2.899 3.854-5.897 7.838-9.468 10.854-4.01 3.384-8.2 5.03-12.814 5.03h-6.72V67.53h6.72c9.918 0 15.843-7.88 21.574-15.5q.353-.471.707-.94l.007-.01c2.894-3.837 5.887-7.806 9.345-10.725 3.848-3.249 7.886-4.827 12.347-4.827h4.223a.4.4 0 0 0 .08-.01l12.299-.097-12.366 2.383zm-.013-5.278.02-.002 12.359 2.376-12.302-.11h-.002a.4.4 0 0 0-.08.009h-4.217c-10.327 0-16.4 8.054-22.274 15.843l-.007.009-.709.94c-5.622 7.479-11.436 15.21-20.99 15.21h-6.72v-2.273h6.72c4.11 0 7.877-1.525 11.512-4.663 3.214-2.772 6.036-6.528 8.765-10.159l.75-.997c6.002-7.957 12.207-16.185 22.952-16.185h4.223zm.44-9.952L83.23 33.646l-12.044-7.667.002-3.408zM22.543 58.519c3.474 0 6.567-1.309 9.736-4.116 2.79-2.473 5.285-5.797 7.926-9.315q.419-.558.845-1.124c6.17-8.179 13.166-17.447 25.473-17.447h4.142l12.564 7.65-12.27-5.329a.4.4 0 0 0-.079-.021.4.4 0 0 0-.133-.026h-4.223c-5.322 0-10.09 1.807-14.581 5.525-3.932 3.254-7.125 7.487-10.217 11.586q-.397.527-.79 1.052c-5.346 7.118-10.395 13.84-18.391 13.84h-6.72v-2.273h6.72zm0 17.288h-6.72v-2.274h6.72c11.478 0 18.211-8.948 24.152-16.841l.645-.859.013-.016c2.849-3.78 5.54-7.351 8.593-9.99 3.39-2.931 6.75-4.297 10.576-4.297h4.223l.018-.002q.099.014.191-.022l12.273-5.048-12.446 7.347H66.52c-7.983 0-12.851 6.46-18.489 13.942l-.017.022-.621.825c-6.074 8.068-12.959 17.213-24.853 17.213z"/></svg>
